X: 24154
T: Loom, The
R: slip jig
M: 9/8
K: Edorian
E2 B e2 B d2 B|=C2A A2 GF2D|E2 B e2 B d2 B|G2 B e2 d B2 G|
E2 B e2 c d2 B|=C2A A2 G F2D|E2 B e2 c d2 f|g2 f e2 d BAF||
GBG EGE D2E|=C2A A2E F2D|E3 D2E =C2D|B2A A2G F2D|
GBG EGE D2E|=C2A A2E F2D|GBG EGE D2E|=C2A A2G F2D||
G2 B d2 c d3|G2 B d2 g e=cA|G2 B d2 c d2 f|g2 f e2 =c B2 =c|
G2 B d2 c d3|G2 B d2 g e=cA|G2 B d2 c d2 f|g2 f e2 d B2 G||

